X: 28145
T: Mrs Gordon Of Knockespoch
R: reel
M: 4/4
K: Fmajor
F3B ABcf|efg2 _EFGB|AFcF ABcb|1 afge fdcA:|2 afge f3b|
afcf cfaf|bgaf efgb|afcf cfbg|ecde f3b|
afcf cfaf|bgaf efgb|afge fdcA|dfeg fdcA||

